X: 14912
T: Gathering The Dal gCais
R: reel
M: 4/4
K: Dmajor
F3 A GE ~E2|A,CEG FDDE|EDFA d2 cd|Beed ceAc|
d2 fe dAFA|GBAG FDCE|DddB cAA,C|1 EDDC D4:|2 EDDC DFEC||
|:A,3 C EA,CE|A,CEG FDDF|ECA,C E3 C|A,CEG FDDE|
EDFA d2 cd|Beed ceAc|d2 fe dAA,C|1 EDDC DFEC:|2 EDDC D3 E||
|:D4 D/E/=F/G/ AB|=c3 B c3 B|Addc d3 =c|Adde =fdeg|
=fded dcAd|d=cAG ADDE|D2 D/E/F/G/ AddB|1 =cAGE EDCE:|2 =cAGE EFAd||
|:faa^g a3 =g|faag fdde|faa^g a3 f|gfed cAAg|
faa^g a3 =g|faag fddg|bg ~g2 af ~f2|1 ceag fdde:|2 ceag fdAG||

